icon-themes/breeze_svg/cmd/32/starshapes.horizontal-scroll.svg

<svg viewBox="0 0 32 32" xmlns="http://www.w3.org/2000/svg"><path d="m25 4c-1.6569 0-3 1.3431-3 3h-12-3c-1.662015 0-3 1.338-3 3v1.5 10.5 1.5 1.5c0 1.6569 1.3431 3 3 3s3-1.3431 3-3h13.5 1.5c1.662015 0 3-1.338 3-3v-4.5-4.5-3-1.5-1.5c0-1.6569-1.3431-3-3-3z" fill="#4d4d4d"/></svg>

<svg xmlns="http://www.w3.org/2000/svg" viewBox="0 0 32 32">
 <path 
     style="fill:#4d4d4d" 
     d="M 25 4 C 23.3431 4 22 5.3431 22 7 L 10 7 L 7 7 C 5.337985 7 4 8.338 4 10 L 4 11.5 L 4 22 L 4 23.5 L 4 25 C 4 26.6569 5.3431 28 7 28 C 8.6569 28 10 26.6569 10 25 L 23.5 25 L 25 25 C 26.662015 25 28 23.662 28 22 L 28 17.5 L 28 13 L 28 10 L 28 8.5 L 28 7 C 28 5.3431 26.6569 4 25 4 z "
     />
</svg>
